X:1
T:Room for the World
T:Room for the World
T:John Robson Sweney
T:Charles H. Elliott, 1885
T:Public Domain Courtesy of the Cyber Hymnal™
T:Public Domain Courtesy of the Cyber Hymnal™
C:John Robson Sweney
Z:Public Domain
Z:Courtesy of the Cyber Hymnal™
%%score 1 ( 2 3 )
L:1/8
Q:1/4=95
M:4/4
K:Ab
V:1 treble 
V:2 bass 
V:3 bass 
V:1
 [CE]2 [DF]>[CE] [CE]2 [EA][EB] | [Ec]2 [Fd][Ec] [Ec] [EB]3 | [DE]2 [DF]>[DE] [DE]2 [DB][Ec] | %3
w: 1.~Room for the world at the|cross of the Sav- ior,|Room where for- give- ness He|
w: 2.~Room for the world in the|fold of the Sav- ior,|Room at the feast by His|
w: 3.~Room for the world in the|ark of the Sav- ior,|Yon- der the tem- pest is|
w: 4.~Room for the world in the|arms of the Sav- ior,|Room for the friend- less, the|
 [EA]2 [FA]>[DF] [CE]4 | [CE]2 [DF]>[CE] [CE]2 [EA][EB] | [Ec]2 [_Ge]>[Ge] [Fe] [Fd]3 | %6
w: waits to be- stow;|Room where so ma- ny have|laid down their bur- dens,|
w: mer- cy pre- pared;|Come, ye that hun- ger, His|boun- ty re- ceiv- ing,|
w: sweep- ing a- pace;|No one but Je- sus can|shield and de- fend you,|
w: lone and op- pressed;|There will He com- fort the|poor and for- sak- en,|
 [Fd]2 [FB][FB] [Ec]2 [EB][EA] | [DB]2 [DF][DG] [CA]4 ||"^Refrain" [EB]2 [EB][EB] [Ge]3 [Ed] | %9
w: Room at the wa- ters of|cleans- ing that flow.||
w: Feed on the bless- ings that|mil- lions have shared.|Say, will you come? The|
w: Haste to the shel- ter and|re- fuge of grace.||
w: There to the wea- ry He|giv- eth sweet rest.||
 [Ec][Fd][Ec][DB] [DB] [CA]3 | [DA]2 [EG][DF] [CE]2 [CA]2 | [Ec][Ec][EB][=DA] [Ec] [EB]3 | %12
w: |||
w: Spir- it now is plead- ing;|Je- sus a- bove for|you is in- ter- ced- ing:|
w: |||
w: |||
 [Ec]2 [=D=B][Ec] [CA]3 [CE] | [EA][EA][EB][_Gc] [Fe] [Fd]3 | [Fd]2 [Fc][FB] [Ec]2 [EB][EA] | %15
w: |||
w: Why will you still, His|ten- der love un- heed- ing,|Per- ish for- ev- er in|
w: |||
w: |||
 [DB]2 [DF][DG] [CA]4 |] %16
w: |
w: sight of the cross?|
w: |
w: |
V:2
 [A,,A,]2 [A,,A,]>[A,,A,] [A,,A,]2 [C,A,][E,G,] | A,2 A,A, [E,A,] [E,G,]3 | %2
 [E,G,]2 [E,G,]>[E,G,] [E,G,]2 [E,G,][E,D] | [A,C]2 [D,D]>[D,A,] [A,,A,]4 | %4
 [A,,A,]2 [A,,A,]>[A,,A,] [A,,A,]2 [C,A,][E,G,] | A,2 [C,A,]>[C,A,] [D,A,] [D,A,]3 | %6
 [D,A,]2 [D,A,][=D,A,] [E,A,]2 [E,=D][E,C] | [E,G,]2 [E,A,][E,B,] [A,,A,]4 || %8
 [E,G,]2 [E,G,][E,G,] [E,B,]3 [G,B,] | A,[A,,A,][A,,A,][A,,E,] [A,,E,] [A,,E,]3 | %10
 [D,F,]2 [D,A,][D,A,] [A,,A,]2 [A,,A,]2 | A,A,[G,B,][F,B,] [E,A,] [E,G,]3 | %12
 [A,,A,]2 [A,,A,][A,,A,] [A,,E,]3 [A,,A,] | [C,A,][C,A,][E,G,]A, [D,A,] [D,A,]3 | %14
 [D,A,]2 [D,A,][=D,A,] [E,A,]2 [E,_D][E,C] | [E,G,]2 [E,A,][E,A,] [A,,A,]4 |] %16
V:3
 x8 | A,2 A,A, x4 | x8 | x8 | x8 | A,2 x6 | x8 | x8 || x8 | A, x7 | x8 | A,A, x6 | x8 | x3 A, x4 | %14
 x8 | x8 |] %16

